symbols/web/nest_thermostat_e_eu/materialsymbolsoutlined/nest_thermostat_e_eu_wght100grad200fill1_48px.svg

<svg xmlns="http://www.w3.org/2000/svg" height="48" width="48"><path d="M9.95 42.55q-.7 0-1.225-.55-.525-.55-.525-1.2h8.05q-4.25-2-7.35-6.1-3.1-4.1-3.1-10.25 0-3.8 1.425-7.1t3.9-5.75Q13.6 9.15 16.9 7.7q3.3-1.45 7.1-1.45t7.1 1.45q3.3 1.45 5.775 3.9 2.475 2.45 3.925 5.75 1.45 3.3 1.45 7.1 0 6.15-3.1 10.25t-7.4 6.1h8.1q0 .65-.55 1.2-.55.55-1.2.55ZM24 40.9q6.95 0 11.725-4.75Q40.5 31.4 40.5 24.45q0-6.95-4.775-11.7Q30.95 8 24 8q-6.95 0-11.7 4.75-4.75 4.75-4.75 11.7 0 6.95 4.75 11.7Q17.05 40.9 24 40.9ZM13.65 30.15v-1.7q1.5-1.3 2.65-2.375t2-1.825q1.05-.95 1.425-1.65t.375-1.5q0-.95-.75-1.55-.75-.6-1.85-.6-.9 0-1.55.425T15 20.6l-1.4-.55q.45-1.1 1.55-1.825 1.1-.725 2.45-.725 1.7 0 2.775 1.125T21.45 21q0 1.1-.475 2.075-.475.975-1.525 2.025-.8.75-1.95 1.8t-2 1.8h6.2v1.45Zm15.65.35q-2.35 0-3.675-1.85Q24.3 26.8 24.3 24q0-2.8 1.325-4.65 1.325-1.85 3.725-1.85 2.3 0 3.625 1.85Q34.3 21.2 34.3 24q0 2.8-1.3 4.65-1.3 1.85-3.7 1.85Zm.05-1.45q1.6 0 2.6-1.25t1-3.8q0-2.45-1.025-3.75-1.025-1.3-2.575-1.3-1.6 0-2.625 1.275T25.7 24q0 2.55 1 3.8t2.65 1.25Z"/></svg>

<svg xmlns="http://www.w3.org/2000/svg" height="48" width="48"><path d="M9.95 42.55Q9.25 42.55 8.725 42Q8.2 41.45 8.2 40.8H16.25Q12 38.8 8.9 34.7Q5.8 30.6 5.8 24.45Q5.8 20.65 7.225 17.35Q8.65 14.05 11.125 11.6Q13.6 9.15 16.9 7.7Q20.2 6.25 24 6.25Q27.8 6.25 31.1 7.7Q34.4 9.15 36.875 11.6Q39.35 14.05 40.8 17.35Q42.25 20.65 42.25 24.45Q42.25 30.6 39.15 34.7Q36.05 38.8 31.75 40.8H39.85Q39.85 41.45 39.3 42Q38.75 42.55 38.1 42.55ZM24 40.9Q30.95 40.9 35.725 36.15Q40.5 31.4 40.5 24.45Q40.5 17.5 35.725 12.75Q30.95 8 24 8Q17.05 8 12.3 12.75Q7.55 17.5 7.55 24.45Q7.55 31.4 12.3 36.15Q17.05 40.9 24 40.9ZM13.65 30.15V28.45Q15.15 27.15 16.3 26.075Q17.45 25 18.3 24.25Q19.35 23.3 19.725 22.6Q20.1 21.9 20.1 21.1Q20.1 20.15 19.35 19.55Q18.6 18.95 17.5 18.95Q16.6 18.95 15.95 19.375Q15.3 19.8 15 20.6L13.6 20.05Q14.05 18.95 15.15 18.225Q16.25 17.5 17.6 17.5Q19.3 17.5 20.375 18.625Q21.45 19.75 21.45 21Q21.45 22.1 20.975 23.075Q20.5 24.05 19.45 25.1Q18.65 25.85 17.5 26.9Q16.35 27.95 15.5 28.7H21.7V30.15ZM29.3 30.5Q26.95 30.5 25.625 28.65Q24.3 26.8 24.3 24Q24.3 21.2 25.625 19.35Q26.95 17.5 29.35 17.5Q31.65 17.5 32.975 19.35Q34.3 21.2 34.3 24Q34.3 26.8 33 28.65Q31.7 30.5 29.3 30.5ZM29.35 29.05Q30.95 29.05 31.95 27.8Q32.95 26.55 32.95 24Q32.95 21.55 31.925 20.25Q30.9 18.95 29.35 18.95Q27.75 18.95 26.725 20.225Q25.7 21.5 25.7 24Q25.7 26.55 26.7 27.8Q27.7 29.05 29.35 29.05Z"/></svg>
